pcengine/_inc/system.svg

<svg xmlns="http://www.w3.org/2000/svg"><g fill="#fff"><path d="m61.278 213.427c-.415 0-.833-.094-1.23-.289-40.193-19.507-60.947-42.249-60.018-65.771.755-19.362 16.556-37.642 45.696-52.872 27.645-14.445 66.64-25.91 112.769-33.158 1.54-.24 2.981.812 3.221 2.349.244 1.537-.809 2.978-2.346 3.221-93.443 14.674-152.339 45.591-153.707 80.685-.824 20.806 19.365 42.286 56.848 60.478 1.398.68 1.982 2.361 1.302 3.769-.487 1.001-1.492 1.588-2.535 1.588z"/><path d="m411.664 68.967c-.153 0-.307-.012-.463-.036-29.693-4.875-61.032-8.129-93.155-9.666-1.558-.072-2.758-1.392-2.682-2.95.075-1.552 1.419-2.74 2.95-2.677 32.34 1.546 63.9 4.821 93.804 9.732 1.534.25 2.577 1.7 2.322 3.236-.229 1.384-1.42 2.361-2.776 2.361z"/><path d="m322.955 261.439c-.788 0-1.57 0-2.361-.004-1.558-.003-2.809-1.266-2.806-2.824.006-1.554 1.26-2.809 2.815-2.809h.012c.773.003 1.564.003 2.343.003 150.814.003 269.821-39.199 271.391-89.581.55-17.633-13.612-35.519-40.966-51.723-27.235-16.141-66.273-29.898-112.88-39.783-1.522-.322-2.493-1.82-2.175-3.342.322-1.521 1.823-2.49 3.345-2.171 47.2 10.012 86.823 23.997 114.583 40.448 29.224 17.317 44.345 36.941 43.726 56.745-.833 26.794-30.433 51.218-83.341 68.764-51.158 16.962-119.861 26.277-193.686 26.277z"/><path d="m373.989 114.726 74.4-56.712-87.383 34.881-24.557-25.561 7.829 35.42-74.397 56.709 87.386-34.89 24.553 25.561z"/><path d="m280.816 185.52c1.068-5.251 3.014-4.487 8.337-5.335l4.957-.779-1.543 8.264-4.957.791c-5.323.846-7.669 2.268-6.794-2.941zm-10.745-7.567-3.856 20.752c-1.056 5.666.656 7.489 6.108 6.626l31.57-5.008 6.767-36.391-31.573 5.002c-5.452.863-7.97 3.356-9.016 9.019zm200.414-32.754-.37 2.005 32.565-5.169c2.571-.412 5.074-3.011 5.6-5.82.514-2.809-1.14-4.755-3.711-4.343l-8.364 1.321-13.344 2.123-3.381.529c-3.913.626-8.204 5.086-8.995 9.354zm-228.477 93.84.264-1.447c1.119.084 2.62.517 3.931.322l33.844-5.308c-1.258 6.751-10.175 8.445-23.787 10.601l-15.488 2.46-8.307 44.665 20.352-3.227c50.105-4.945 69.166-30.842 75.286-61.711l61.053-9.691 9.837-52.938 4.966-.794c5.44-.863 4.637-1.846 3.594 3.808l-9.005 48.439 43.832-6.957.598-3.209c3.308 1.459 7.176 1.973 11.266 1.33l75.804-12.024 7.068-38.048-4.911-3.498c4.255-5.044 7.573-11.212 8.535-16.391l1.194-6c3.783-22.442-16.908-28.403-26.352-26.902l-43.5 6.902c-7.706 1.224-16.187 6.593-22.361 13.705-5.708-5.654-14.517-7.852-19.642-7.037l-48.43 7.681 5.423 11.982 43.675-6.92c6.3-1.005 10.508 1.509 11.663 6.499-.467 1.32-11.663 60.935-11.663 60.935l-15.661 2.487 8.397-45.133c1.041-5.652-.667-7.48-6.105-6.614l-30.012 4.767-9.846 52.938-17.215 2.74 11.266-60.613-14.171-16.716-51.014 18.442 24.178-3.838.391-.054-15.375 82.716c-3.907 21.01-26.327 41.103-46.216 44.261l-20.349 3.224 3.086-16.553 15.479-2.448c13.609-2.166 28.93-15.787 31.573-30.03l1.669-8.963-40.309 6.394c-8.644 1.375-13.335-3.876-11.636-13.007l7.23-38.884c1.278-6.911 5.591-12.647 11.359-15.63l.093-1.038 20.226-15.564-11.814 1.988c-6.288.993-17.942 5.706-25.35 15.152-5.6-6.683-15.395-9.299-20.911-8.424l-43.449 6.902 7.082-38.06 31.699-5.031c16.872-2.671 35.543-21.651 38.863-39.474l4.764-25.648c3.317-17.834-9.224-31.858-26.099-29.181l-69.275 10.989-14.761 79.416-63.789 10.123c-5.398.858-10.652 6.181-11.708 11.886l-23.84 128.219c-1.056 5.708 2.463 9.645 7.861 8.794l121.717-19.314 9.846-52.938 4.957-.794c5.452-.854 4.649-1.835 3.591 3.816l-9.002 48.424zm-90.322-29.026-40.7 6.457 1.531-8.261 32.872-5.227 8-43.017-32.872 5.224 1.53-8.27 40.701-6.46zm-2.463 13.239-3.38 18.196-72.009 11.422 22.442-120.772 59.488-9.438-3.073 16.548-42.268 6.712-6.454 34.74 34.436-5.462-3.073 16.539-34.439 5.461-6.467 34.752zm82.716 4.548-17.224 2.721 8.387-45.118c1.059-5.657-.652-7.492-6.105-6.629l-30.009 4.767-9.837 52.938-17.224 2.737 12.914-69.479.4-.066 57.134-9.065c8.643-1.374 13.332 3.868 11.633 13.007zm111.927-85.2 16.833-2.665-12.923 69.483-17.215 2.728 12.911-69.474zm104.441 32.746 5.976-32.141c1.895-10.166 12.821-20.151 22.126-21.63l40.271-6.382c6.785-1.08 11.498 6.499 10.114 13.912l-1.976 10.346c-1.386 7.417-8.962 15.299-15.741 16.379l-41.801 6.635-.602 3.753c-.794 4.265 2.036 7.597 5.949 6.974l46.722-7.44-3.149 16.956-52.707 8.355c-9.308 1.474-17.064-5.543-15.182-15.717zm-249.126-90.078 5.843-31.437 21.916-3.477c2.875-.454 4.343 1.185 3.771 4.216l-3.993 21.516c-.572 3.041-2.746 5.248-5.622 5.705z"/><path d="m339.258 99.975-4.649-18.427-2.626.315-.842 4.545c-.583 3.152-3.116 5.714-6.087 6.192l-18.006 2.854c-2.974.476-4.674-1.428-4.087-4.577l9.073-48.806c.584-3.137 3.116-5.705 6.085-6.18l18.008-2.854c2.972-.473 4.671 1.428 4.085 4.565l-1.161 6.214 36.4-5.781 1.383-7.44c3.489-18.776-9.275-33.05-27.049-30.241l-34.827 5.528c-17.763 2.821-36.779 22.138-40.268 40.914l-9.687 52.114c-3.486 18.776 9.278 33.049 27.053 30.228l11.639-1.837z"/><path d="m365.063 88.859c.95-2.556 1.606-3.528 2.093-6.15l1.236-6.626-14.484 2.304z"/></g></svg>

<?xml version="1.0" encoding="utf-8"?>
<svg version="1.1" xmlns="http://www.w3.org/2000/svg">
  <g>
    <path d="M 61.278 213.427 C 60.863 213.427 60.445 213.333 60.048 213.138 C 19.855 193.631 -0.899 170.889 0.03 147.367 C 0.785 128.005 16.586 109.725 45.726 94.495 C 73.371 80.05 112.366 68.585 158.495 61.337 C 160.035 61.097 161.476 62.149 161.716 63.686 C 161.96 65.223 160.907 66.664 159.37 66.907 C 65.927 81.581 7.031 112.498 5.663 147.592 C 4.839 168.398 25.028 189.878 62.511 208.07 C 63.909 208.75 64.493 210.431 63.813 211.839 C 63.326 212.84 62.321 213.427 61.278 213.427 Z" id="path7" style="fill-opacity: 1; fill: rgb(255, 255, 255);"/>
    <path d="M 411.664 68.967 C 411.511 68.967 411.357 68.955 411.201 68.931 C 381.508 64.056 350.169 60.802 318.046 59.265 C 316.488 59.193 315.288 57.873 315.364 56.315 C 315.439 54.763 316.783 53.575 318.314 53.638 C 350.654 55.184 382.214 58.459 412.118 63.37 C 413.652 63.62 414.695 65.07 414.44 66.606 C 414.211 67.99 413.02 68.967 411.664 68.967 Z" id="path11" style="fill-opacity: 1; fill: rgb(255, 255, 255);"/>
    <path d="M 322.955 261.439 C 322.167 261.439 321.385 261.439 320.594 261.435 C 319.036 261.432 317.785 260.169 317.788 258.611 C 317.794 257.057 319.048 255.802 320.603 255.802 C 320.606 255.802 320.609 255.802 320.615 255.802 C 321.388 255.805 322.179 255.805 322.958 255.805 C 473.772 255.808 592.779 216.606 594.349 166.224 C 594.899 148.591 580.737 130.705 553.383 114.501 C 526.148 98.36 487.11 84.603 440.503 74.718 C 438.981 74.396 438.01 72.898 438.328 71.376 C 438.65 69.855 440.151 68.886 441.673 69.205 C 488.873 79.217 528.496 93.202 556.256 109.653 C 585.48 126.97 600.601 146.594 599.982 166.398 C 599.149 193.192 569.549 217.616 516.641 235.162 C 465.483 252.124 396.78 261.439 322.955 261.439 Z" id="path15" style="fill-opacity: 1; fill: rgb(255, 255, 255);"/>
    <polygon points="373.989 114.726 448.389 58.014 361.006 92.895 336.449 67.334 344.278 102.754 269.881 159.463 357.267 124.573 381.82 150.134" id="polygon17" style="fill-opacity: 1; fill: rgb(255, 255, 255);"/>
    <path d="M 280.816 185.52 C 281.884 180.269 283.83 181.033 289.153 180.185 L 294.11 179.406 L 292.567 187.67 L 287.61 188.461 C 282.287 189.307 279.941 190.729 280.816 185.52 Z M 270.071 177.953 L 266.215 198.705 C 265.159 204.371 266.871 206.194 272.323 205.331 L 303.893 200.323 L 310.66 163.932 L 279.087 168.934 C 273.635 169.797 271.117 172.29 270.071 177.953 Z M 470.485 145.199 L 470.115 147.204 L 502.68 142.035 C 505.251 141.623 507.754 139.024 508.28 136.215 C 508.794 133.406 507.14 131.46 504.569 131.872 L 496.205 133.193 L 482.861 135.316 L 479.48 135.845 C 475.567 136.471 471.276 140.931 470.485 145.199 Z M 242.008 239.039 L 242.272 237.592 C 243.391 237.676 244.892 238.109 246.203 237.914 L 280.047 232.606 C 278.789 239.357 269.872 241.051 256.26 243.207 L 240.772 245.667 L 232.465 290.332 L 252.817 287.105 C 302.922 282.16 321.983 256.263 328.103 225.394 L 389.156 215.703 L 398.993 162.765 L 403.959 161.971 C 409.399 161.108 408.596 160.125 407.553 165.779 L 398.548 214.218 L 442.38 207.261 L 442.978 204.052 C 446.286 205.511 450.154 206.025 454.244 205.382 L 530.048 193.358 L 537.116 155.31 L 532.205 151.812 C 536.46 146.768 539.778 140.6 540.74 135.421 L 541.934 129.421 C 545.717 106.979 525.026 101.018 515.582 102.519 L 472.082 109.421 C 464.376 110.645 455.895 116.014 449.721 123.126 C 444.013 117.472 435.204 115.274 430.079 116.089 L 381.649 123.77 L 387.072 135.752 L 430.747 128.832 C 437.047 127.827 441.255 130.341 442.41 135.331 C 441.943 136.651 430.747 196.266 430.747 196.266 L 415.086 198.753 L 423.483 153.62 C 424.524 147.968 422.816 146.14 417.378 147.006 L 387.366 151.773 L 377.52 204.711 L 360.305 207.451 L 371.571 146.838 L 357.4 130.122 L 306.386 148.564 L 330.564 144.726 L 330.955 144.672 L 315.58 227.388 C 311.673 248.398 289.253 268.491 269.364 271.649 L 249.015 274.873 L 252.101 258.32 L 267.58 255.872 C 281.189 253.706 296.51 240.085 299.153 225.842 L 300.822 216.879 L 260.513 223.273 C 251.869 224.648 247.178 219.397 248.877 210.266 L 256.107 171.382 C 257.385 164.471 261.698 158.735 267.466 155.752 L 267.559 154.714 L 287.785 139.15 L 275.971 141.138 C 269.683 142.131 258.029 146.844 250.621 156.29 C 245.021 149.607 235.226 146.991 229.71 147.866 L 186.261 154.768 L 193.343 116.708 L 225.042 111.677 C 241.914 109.006 260.585 90.026 263.905 72.203 L 268.669 46.555 C 271.986 28.721 259.445 14.697 242.57 17.374 L 173.295 28.363 L 158.534 107.779 L 94.745 117.902 C 89.347 118.76 84.093 124.083 83.037 129.788 L 59.197 258.007 C 58.141 263.715 61.66 267.652 67.058 266.801 L 188.775 247.487 L 198.621 194.549 L 203.578 193.755 C 209.03 192.901 208.227 191.92 207.169 197.571 L 198.167 245.995 L 242.008 239.039 Z M 151.686 210.013 L 110.986 216.47 L 112.517 208.209 L 145.389 202.982 L 153.389 159.965 L 120.517 165.189 L 122.047 156.919 L 162.748 150.459 L 151.686 210.013 Z M 149.223 223.252 L 145.843 241.448 L 73.834 252.87 L 96.276 132.098 L 155.764 122.66 L 152.691 139.208 L 110.423 145.92 L 103.969 180.66 L 138.405 175.198 L 135.332 191.737 L 100.893 197.198 L 94.426 231.95 L 149.223 223.252 Z M 231.939 227.8 L 214.715 230.521 L 223.102 185.403 C 224.161 179.746 222.45 177.911 216.997 178.774 L 186.988 183.541 L 177.151 236.479 L 159.927 239.216 L 172.841 169.737 L 173.241 169.671 L 230.375 160.606 C 239.018 159.232 243.707 164.474 242.008 173.613 L 231.939 227.8 Z M 343.866 142.6 L 360.699 139.935 L 347.776 209.418 L 330.561 212.146 L 343.472 142.672 L 343.866 142.6 Z M 448.307 175.346 L 454.283 143.205 C 456.178 133.039 467.104 123.054 476.409 121.575 L 516.68 115.193 C 523.465 114.113 528.178 121.692 526.794 129.105 L 524.818 139.451 C 523.432 146.868 515.856 154.75 509.077 155.83 L 467.276 162.465 L 466.674 166.218 C 465.88 170.483 468.71 173.815 472.623 173.192 L 519.345 165.752 L 516.196 182.708 L 463.489 191.063 C 454.181 192.537 446.425 185.52 448.307 175.346 Z M 199.181 85.268 L 205.024 53.831 L 226.94 50.354 C 229.815 49.9 231.283 51.539 230.711 54.57 L 226.718 76.086 C 226.146 79.127 223.972 81.334 221.096 81.791 L 199.181 85.268 Z" id="path21" style="fill-opacity: 1; fill: rgb(255, 255, 255);"/>
    <path d="M 339.258 99.975 L 334.609 81.548 L 331.983 81.863 L 331.141 86.408 C 330.558 89.56 328.025 92.122 325.054 92.6 L 307.048 95.454 C 304.074 95.93 302.374 94.026 302.961 90.877 L 312.034 42.071 C 312.618 38.934 315.15 36.366 318.119 35.891 L 336.127 33.037 C 339.099 32.564 340.798 34.465 340.212 37.602 L 339.051 43.816 L 375.451 38.035 L 376.834 30.595 C 380.323 11.819 367.559 -2.455 349.785 0.354 L 314.958 5.882 C 297.195 8.703 278.179 28.02 274.69 46.796 L 265.003 98.91 C 261.517 117.686 274.281 131.959 292.056 129.138 L 303.695 127.301 L 339.258 99.975 Z" id="path25" style="fill-opacity: 1; fill: rgb(255, 255, 255);"/>
    <path d="M 365.063 88.859 C 366.013 86.303 366.669 85.331 367.156 82.709 L 368.392 76.083 L 353.908 78.387 L 365.063 88.859 Z" id="path27" style="fill-opacity: 1; fill: rgb(255, 255, 255);"/>
  </g>
</svg>
